X: 1
T: Jamie Laval's Welcome to Glasgow
C: Nigel Gatherer
R: strathspey
S: Jamie Laval's Facebook message 2017-10-9
Z: 2017 John Chambers <jc:trillian.mit.edu>
M: C
L: 1/8
K: D
B |\
"D"A<F D>A "Em"B<G E>D | "A"C>E A>c "Bm"d>ef2 |\
"D"A<F D>A "Em"B<G E>D | "A7"C>E A>c "D"d2d :|
e |\
"D"f<d A>f "Em"g<e B>d | "A7"c>a "G"B>g "D"f>g a2 |\
"D"f<d A>f "Em"g<e B>d | "A7"c>d e<c "D"d2 D> ||
e |\
"D"f<d A>f "Em"g<e B>d | "A7"c>a "G"B>g "D"f>g a2 |\
"D"(3fdA (3def "Em"geB (3efg | "D"(3afd "A7"gec "D"d2d |]
